icons/square-cross-outline.svg

<svg xmlns="http://www.w3.org/2000/svg" width="24" height="24" viewBox="0 0 24 24">
  <path d="M19,2 C20.6568542,2 22,3.34314575 22,5 L22,5 L22,19 C22,20.6568542 20.6568542,22 19,22 L19,22 L5,22 C3.34314575,22 2,20.6568542 2,19 L2,19 L2,5 C2,3.34314575 3.34314575,2 5,2 L5,2 Z M19,4 L5,4 C4.44771525,4 4,4.44771525 4,5 L4,5 L4,19 C4,19.5522847 4.44771525,20 5,20 L5,20 L19,20 C19.5522847,20 20,19.5522847 20,19 L20,19 L20,5 C20,4.44771525 19.5522847,4 19,4 L19,4 Z M8.61289944,7.20970461 L8.70710678,7.29289322 L12,10.585 L15.2928932,7.29289322 C15.6834175,6.90236893 16.3165825,6.90236893 16.7071068,7.29289322 C17.0675907,7.65337718 17.0953203,8.22060824 16.7902954,8.61289944 L16.7071068,8.70710678 L13.415,12 L16.7071068,15.2928932 C17.0976311,15.6834175 17.0976311,16.3165825 16.7071068,16.7071068 C16.3466228,17.0675907 15.7793918,17.0953203 15.3871006,16.7902954 L15.2928932,16.7071068 L12,13.415 L8.70710678,16.7071068 C8.31658249,17.0976311 7.68341751,17.0976311 7.29289322,16.7071068 C6.93240926,16.3466228 6.90467972,15.7793918 7.20970461,15.3871006 L7.29289322,15.2928932 L10.585,12 L7.29289322,8.70710678 C6.90236893,8.31658249 6.90236893,7.68341751 7.29289322,7.29289322 C7.65337718,6.93240926 8.22060824,6.90467972 8.61289944,7.20970461 Z"/>
</svg>

<svg xmlns="http://www.w3.org/2000/svg" viewBox="0 0 24 24">
  <path d="M19 2a3 3 0 0 1 3 3v14a3 3 0 0 1-3 3H5a3 3 0 0 1-3-3V5a3 3 0 0 1 3-3zm0 2H5a1 1 0 0 0-1 1v14a1 1 0 0 0 1 1h14a1 1 0 0 0 1-1V5a1 1 0 0 0-1-1zM8.61 7.21l.1.08L12 10.6l3.3-3.3a1 1 0 0 1 1.49 1.32l-.08.1L13.4 12l3.3 3.3a1 1 0 0 1-1.32 1.49l-.1-.08L12 13.4l-3.3 3.3a1 1 0 0 1-1.49-1.32l.08-.1L10.6 12 7.3 8.7a1 1 0 0 1 1.32-1.49z"/>
</svg>
